X:447
T: WAS IST MIT DIR GESCHEHEN
N: E0369
O: Europa, Mitteleuropa, Deutschland, Nassau, Dillkreis; Wetterau
R: historisches Lied, Deutsch - Franzoesischer Krieg (1870)
M: 4/4
L: 1/8
K: F
C2 | F2F2A2c2 | f2c2A2
F2 | d2d2e2e2 | f4z2
C2 | F2F2A2c2 | f2c2A2
F2 | d2d2e2e2 | f4z2
A2 | G3Gf2f2 | e3ee2
e2 | g2g2f2dd | c3dcB
AG | F2F2A2c2 | f2c2A2
F2 | d2d2e2e2 | f4z2

